X: 21131
T: Kas A Barh
R: reel
M: 4/4
K: Aminor
P:A
|:cc/d/e e/d/|cAee|cc/d/ed|cAe2:|
P:B
|:c d/e/ ce|dcAG|c d/e/ c d/e/|d B c2:|
P:C
|:cc/d/e e/d/|cAee|cc/d/ed|cAe2:|
P:D
|:c d/e/ ce|dcAG|c d/e/ c d/e/|d B c2:|
P:E
|:B B/A/G G/A/|Bc AA|B B/A/G A|B/A/B/c/ A2:|
P:F
|:G>Bdd|cB/c/BA|G>Bdd|AA/B/G2:|
P:G
|:B B/A/G G/A/|Bc AA|B B/A/G A|B/A/B/c/ A2:|
P:H
|:G>Bdd|cB/c/BA|G>Bdd|1 A>^fg2:|2 AA/B/G2||
P:I
|:AA ee|d e/d/c B|AA ee|de/d/B2:|
P:J
|:d>d cA|Bc BA|d>d cA|Bc A2:|
P:K
|:AA ee|d e/d/c B|AA ee|de/d/B2:|
P:L
|:d>d cA|Bc BA|d>d cA|Bc A2:|

